X: 1
T: Apple Tree, The
M: 4/4
L: 1/8
R: reel
K: Amaj
A2a2 fedc|Aaga fedc|Bcde fBBc|Bcde fefa|
A2a2 fedc|Aaga fedc|Bcde fBBa|gefg a4:|
EAAB cBAE|EAAB cBAG|FBBc dcBA|GABc defe|
EAAB cBAE|EAAB cBAG|FBBc dcBA|GEFG A4:|
